assets/lock.svg

<svg fill="none" height="40" viewBox="0 0 40 40" width="40" xmlns="http://www.w3.org/2000/svg"><rect fill="#f55d3e" height="40" rx="20" width="40"/><path d="m20 18.625c-.5778.0002-1.1363.2083-1.5734.5864-.437.378-.7234.9007-.8068 1.4724-.0835.5718.0417 1.1546.3525 1.6417s.7865.8462 1.3402 1.0115v1.4755c0 .1823.0724.3572.2014.4861.1289.129.3038.2014.4861.2014s.3572-.0724.4861-.2014c.129-.1289.2014-.3038.2014-.4861v-1.4755c.5537-.1653 1.0294-.5244 1.3402-1.0115s.436-1.0699.3525-1.6417c-.0834-.5717-.3698-1.0944-.8068-1.4724-.4371-.3781-.9956-.5862-1.5734-.5864zm0 3.4375c-.204 0-.4033-.0605-.5729-.1738s-.3018-.2744-.3799-.4628c-.078-.1884-.0984-.3958-.0586-.5958.0398-.2001.138-.3838.2822-.5281.1442-.1442.328-.2424.528-.2822.2001-.0398.4074-.0194.5958.0587.1885.0781.3495.2102.4629.3798.1133.1696.1737.369.1737.5729 0 .2736-.1086.5359-.302.7293s-.4557.302-.7292.302zm6.875-6.1875h-2.75v-2.0625c0-1.094-.4346-2.1432-1.2082-2.9168s-1.8228-1.2082-2.9168-1.2082-2.1432.4346-2.9168 1.2082-1.2082 1.8228-1.2082 2.9168v2.0625h-2.75c-.3647 0-.7144.1449-.9723.4027-.2578.2579-.4027.6076-.4027.9723v9.625c0 .3647.1449.7144.4027.9723.2579.2578.6076.4027.9723.4027h13.75c.3647 0 .7144-.1449.9723-.4027.2578-.2579.4027-.6076.4027-.9723v-9.625c0-.3647-.1449-.7144-.4027-.9723-.2579-.2578-.6076-.4027-.9723-.4027zm-9.625-2.0625c0-.7293.2897-1.4288.8055-1.9445.5157-.5158 1.2152-.8055 1.9445-.8055s1.4288.2897 1.9445.8055c.5158.5157.8055 1.2152.8055 1.9445v2.0625h-5.5zm9.625 13.0625h-13.75v-9.625h13.75z" fill="#fff"/></svg>

<svg width="40" height="40" viewBox="0 0 40 40" fill="none" xmlns="http://www.w3.org/2000/svg">
<rect width="40" height="40" rx="20" fill="#F55D3E"/>
<path d="M20 18.625C19.4222 18.6252 18.8637 18.8333 18.4266 19.2114C17.9896 19.5894 17.7032 20.1121 17.6198 20.6838C17.5363 21.2556 17.6615 21.8384 17.9723 22.3255C18.2831 22.8126 18.7588 23.1717 19.3125 23.337V24.8125C19.3125 24.9948 19.3849 25.1697 19.5139 25.2986C19.6428 25.4276 19.8177 25.5 20 25.5C20.1823 25.5 20.3572 25.4276 20.4861 25.2986C20.6151 25.1697 20.6875 24.9948 20.6875 24.8125V23.337C21.2412 23.1717 21.7169 22.8126 22.0277 22.3255C22.3385 21.8384 22.4637 21.2556 22.3802 20.6838C22.2968 20.1121 22.0104 19.5894 21.5734 19.2114C21.1363 18.8333 20.5778 18.6252 20 18.625ZM20 22.0625C19.796 22.0625 19.5967 22.002 19.4271 21.8887C19.2575 21.7754 19.1253 21.6143 19.0472 21.4259C18.9692 21.2375 18.9488 21.0301 18.9886 20.8301C19.0284 20.63 19.1266 20.4463 19.2708 20.302C19.415 20.1578 19.5988 20.0596 19.7988 20.0198C19.9989 19.98 20.2062 20.0004 20.3946 20.0785C20.5831 20.1566 20.7441 20.2887 20.8575 20.4583C20.9708 20.6279 21.0312 20.8273 21.0312 21.0312C21.0312 21.3048 20.9226 21.5671 20.7292 21.7605C20.5358 21.9539 20.2735 22.0625 20 22.0625ZM26.875 15.875H24.125V13.8125C24.125 12.7185 23.6904 11.6693 22.9168 10.8957C22.1432 10.1221 21.094 9.6875 20 9.6875C18.906 9.6875 17.8568 10.1221 17.0832 10.8957C16.3096 11.6693 15.875 12.7185 15.875 13.8125V15.875H13.125C12.7603 15.875 12.4106 16.0199 12.1527 16.2777C11.8949 16.5356 11.75 16.8853 11.75 17.25V26.875C11.75 27.2397 11.8949 27.5894 12.1527 27.8473C12.4106 28.1051 12.7603 28.25 13.125 28.25H26.875C27.2397 28.25 27.5894 28.1051 27.8473 27.8473C28.1051 27.5894 28.25 27.2397 28.25 26.875V17.25C28.25 16.8853 28.1051 16.5356 27.8473 16.2777C27.5894 16.0199 27.2397 15.875 26.875 15.875ZM17.25 13.8125C17.25 13.0832 17.5397 12.3837 18.0555 11.868C18.5712 11.3522 19.2707 11.0625 20 11.0625C20.7293 11.0625 21.4288 11.3522 21.9445 11.868C22.4603 12.3837 22.75 13.0832 22.75 13.8125V15.875H17.25V13.8125ZM26.875 26.875H13.125V17.25H26.875V26.875Z" fill="white"/>
</svg>
